src/images/documents/svg/image.svg

<svg fill="none" height="120" viewBox="0 0 80 120" width="80" xmlns="http://www.w3.org/2000/svg"><path d="m.999512 119v-118.000244h58.585788l19.4142 19.414244v98.586z" fill="#fff" stroke="#5e5e5e" stroke-width="2"/><path d="m79.9995 19.9998-20-20.00004414v20.00004414z" fill="#5e5e5e"/><path d="m63.9773 27.9998h-47.4546c-2.6363 0-5.2727 2.6666-5.2727 5.3333v37.3333c0 2.9334 2.3727 5.3334 5.2727 5.3334h47.4546c2.6363 0 5.2727-2.6667 5.2727-5.3334v-37.3333c0-2.6667-2.6364-5.3333-5.2727-5.3333zm-42.1818 37.3333 9.2272-12 6.5909 8.0267 9.2273-12.0267 11.8636 16z" fill="#5e5e5e"/><circle cx="39.5833" cy="43.6246" fill="#fff" r="3.33333"/></svg>

<svg width="80" height="120" viewBox="0 0 80 120" fill="none" xmlns="http://www.w3.org/2000/svg">
<path d="M1 119V1H59.5858L79 20.4142V119H1Z" fill="white" stroke="#0065BD" stroke-width="2"/>
<path d="M80 20L60 0V20H80Z" fill="#0065BD"/>
<path d="M63.9778 28H16.5232C13.8869 28 11.2505 30.6667 11.2505 33.3333V70.6667C11.2505 73.6 13.6232 76 16.5232 76H63.9778C66.6141 76 69.2505 73.3333 69.2505 70.6667V33.3333C69.2505 30.6667 66.6141 28 63.9778 28ZM21.7959 65.3333L31.0232 53.3333L37.6141 61.36L46.8414 49.3333L58.705 65.3333H21.7959Z" fill="#0065BD"/>
<circle cx="39.5838" cy="43.6249" r="3.33333" fill="white"/>
</svg>
